packages/icons/menus/MenuPersonas.svg

<svg xmlns="http://www.w3.org/2000/svg" width="30" height="30" fill="none" viewBox="0 0 30 30">
    <rect width="1.875" height="9.375" x="4.54993" y="16.3584" fill="url(#paint0_linear_1005_18929)" rx="0.9375" transform="rotate(-30 4.54993 16.3584)"/>
    <path fill="url(#paint1_linear_1005_18929)" fill-rule="evenodd" d="M17.043 16.1806C15.8314 16.5673 14.5201 16.3629 13.3306 15.6237C13.2014 15.5378 13.0293 15.5164 12.8678 15.568C12.7063 15.6196 12.5783 15.7367 12.515 15.8968C11.9816 17.1732 11.0197 18.1033 9.80817 18.49C7.86965 19.1088 5.66737 18.1844 4.31767 16.1867C3.95674 15.6535 3.66553 15.0599 3.46294 14.4252C3.36717 14.1252 3.2908 13.8063 3.22965 13.4953L3.02237 12.3281L3.99046 13.0108C4.17263 13.1434 4.41348 13.1809 4.62118 13.1146C4.67888 13.0962 4.73289 13.0663 4.7869 13.0363L5.03165 12.7675L5.04737 12.737L5.07879 12.6761C5.74676 11.6619 6.73711 10.9007 7.90252 10.5287C8.99871 10.1788 10.1745 10.1976 11.2614 10.5754C11.9284 9.63775 12.8757 8.94118 13.9719 8.59126C15.1258 8.22293 16.3855 8.26581 17.5176 8.70545L17.5785 8.73688C17.6242 8.76044 17.6814 8.78032 17.7386 8.8002L17.7386 8.80021L17.7538 8.80806C17.8797 8.84415 18.0177 8.83825 18.1562 8.79405C18.3754 8.72406 18.5384 8.5576 18.6101 8.344L18.9921 7.23034L19.4993 8.30171C19.6449 8.59853 19.7523 8.89485 19.848 9.19486C20.0506 9.82949 20.1572 10.4821 20.172 11.1258C20.2524 13.5286 18.9815 15.5617 17.043 16.1806ZM9.57692 15.4495C9.41538 15.5011 9.24647 15.5296 9.07388 15.5465C8.12695 15.6072 7.24651 14.9601 6.84115 14.6063C7.13255 14.2845 7.71437 13.7173 8.44132 13.4852C8.6144 13.43 8.77177 13.4052 8.94436 13.3882C9.89129 13.3275 10.7717 13.9747 11.1771 14.3284C10.8742 14.654 10.2923 15.2211 9.57692 15.4495ZM13.5319 13.5769C13.9559 13.6704 14.7702 13.7919 15.4856 13.5635C15.6587 13.5083 15.8129 13.4336 15.9519 13.3511C16.7473 12.8556 17.1015 11.8144 17.2269 11.2912C16.8029 11.1977 15.9885 11.0762 15.2731 11.3046C15.1001 11.3598 14.9459 11.4345 14.8069 11.517C14.0115 12.0125 13.6573 13.0537 13.5319 13.5769Z" clip-rule="evenodd"/>
    <g filter="url(#filter0_b_1005_18929)">
        <path fill="url(#paint2_linear_1005_18929)" fill-opacity="0.3" fill-rule="evenodd" d="M17.5365 10.7765L17.7399 10.4375L27.3129 13.5969L27.2722 13.9901C27.1908 14.8443 27.0146 15.6986 26.7298 16.5393C26.0654 18.5325 24.9264 20.241 23.5298 21.3529C22.4857 22.18 21.3603 22.6139 20.2891 22.6139C19.8687 22.6139 19.462 22.5597 19.0687 22.4241C17.6585 21.9495 16.6145 20.702 16.1399 18.8986C15.6789 17.1766 15.7873 15.1291 16.4517 13.1358C16.7229 12.2951 17.089 11.5087 17.5365 10.7765ZM18.7572 16.3767C18.9606 16.4717 19.1776 16.5123 19.4217 16.5123C19.6386 16.5123 19.8827 16.4717 20.1403 16.4039C20.4173 16.3115 20.64 16.1959 20.7378 16.1451C20.7693 16.1287 20.7879 16.1191 20.7912 16.1191L21.0624 15.9564L20.9132 15.6716C20.8996 15.631 20.4657 14.8038 19.6115 14.4242C18.7572 14.0445 17.8488 14.2886 17.8081 14.3021L17.4962 14.3835L17.564 14.6954C17.5679 14.6993 17.5763 14.7277 17.59 14.7746C17.6243 14.8912 17.692 15.1219 17.8081 15.3733C18.0521 15.8615 18.3776 16.214 18.7572 16.3767ZM22.9742 17.814C23.0827 17.8412 23.1912 17.8547 23.3132 17.8547C23.6386 17.8547 23.9912 17.7598 24.3302 17.5835C24.6827 17.4073 24.9132 17.2039 24.9268 17.1903L25.1709 16.9734L24.981 16.7157C24.9539 16.675 24.3709 15.9293 23.4624 15.7259C22.6215 15.5376 21.8387 15.8721 21.6946 15.9337C21.683 15.9386 21.6756 15.9418 21.6725 15.9428L21.3878 16.0784L21.5098 16.3767C21.5098 16.3903 21.6318 16.6886 21.8624 17.0005C22.1878 17.4344 22.5675 17.7191 22.9742 17.814Z" clip-rule="evenodd"/>
    </g>
    <defs>
        <filter id="filter0_b_1005_18929" width="19.4538" height="20.1765" x="11.8591" y="6.4375" color-interpolation-filters="sRGB" filterUnits="userSpaceOnUse">
            <feFlood flood-opacity="0" result="BackgroundImageFix"/>
            <feGaussianBlur in="BackgroundImage" stdDeviation="2"/>
            <feComposite in2="SourceAlpha" operator="in" result="effect1_backgroundBlur_1005_18929"/>
            <feBlend in="SourceGraphic" in2="effect1_backgroundBlur_1005_18929" mode="normal" result="shape"/>
        </filter>
        <linearGradient id="paint0_linear_1005_18929" x1="4.54993" x2="6.42493" y1="25.7334" y2="25.7334" gradientUnits="userSpaceOnUse">
            <stop stop-color="#AFC3E1"/>
            <stop offset="1" stop-color="#C3D7F5"/>
        </linearGradient>
        <linearGradient id="paint1_linear_1005_18929" x1="3.66543" x2="20.7937" y1="19.1608" y2="17.5488" gradientUnits="userSpaceOnUse">
            <stop stop-color="#AFC3E1"/>
            <stop offset="1" stop-color="#C3D7F5"/>
        </linearGradient>
        <linearGradient id="paint2_linear_1005_18929" x1="15.8591" x2="27.3129" y1="22.6139" y2="22.6139" gradientUnits="userSpaceOnUse">
            <stop stop-color="#B0CFEB"/>
            <stop offset="1" stop-color="#C4E1FB"/>
        </linearGradient>
    </defs>
</svg>

<svg xmlns="http://www.w3.org/2000/svg" width="30" height="30" fill="none">
    <rect width="1.875" height="9.375" x="4.55" y="16.358" fill="url(#MenuPersonas_svg__a)" rx=".938" transform="rotate(-30 4.55 16.358)"/>
    <path fill="url(#MenuPersonas_svg__b)" fill-rule="evenodd" d="M17.043 16.18c-1.212.387-2.523.183-3.712-.556a.542.542 0 0 0-.463-.056.557.557 0 0 0-.353.329c-.533 1.276-1.495 2.206-2.707 2.593-1.938.619-4.14-.306-5.49-2.303a6.876 6.876 0 0 1-.855-1.762 8.457 8.457 0 0 1-.233-.93l-.208-1.167.968.683a.72.72 0 0 0 .631.104.93.93 0 0 0 .166-.079l.245-.268.015-.031.032-.06a5.317 5.317 0 0 1 2.824-2.148 5.305 5.305 0 0 1 3.358.046 5.305 5.305 0 0 1 2.71-1.984 5.342 5.342 0 0 1 3.547.114l.06.032c.046.023.103.043.16.063l.016.008c.126.036.264.03.402-.014a.7.7 0 0 0 .454-.45l.382-1.114.507 1.072c.146.297.253.593.349.893a6.83 6.83 0 0 1 .324 1.93c.08 2.404-1.19 4.437-3.129 5.056Zm-7.466-.73c-.162.051-.33.08-.503.097-.947.06-1.827-.587-2.233-.94.292-.322.873-.89 1.6-1.122.173-.055.33-.08.503-.097.947-.06 1.828.587 2.233.94-.303.326-.885.893-1.6 1.122Zm3.955-1.873c.424.093 1.238.215 1.954-.014a2.25 2.25 0 0 0 .466-.212c.795-.495 1.15-1.537 1.275-2.06-.424-.093-1.239-.215-1.954.014-.173.055-.327.13-.466.212-.796.495-1.15 1.537-1.275 2.06Z" clip-rule="evenodd"/>
    <g filter="url(#MenuPersonas_svg__c)">
        <path fill="url(#MenuPersonas_svg__d)" fill-opacity=".3" fill-rule="evenodd" d="m17.537 10.777.203-.34 9.573 3.16-.04.393a11.26 11.26 0 0 1-.543 2.55c-.665 1.992-1.804 3.701-3.2 4.813-1.044.827-2.17 1.26-3.24 1.26-.421 0-.828-.053-1.221-.189-1.41-.474-2.454-1.722-2.93-3.525-.46-1.722-.352-3.77.313-5.763.27-.84.637-1.627 1.084-2.36Zm1.22 5.6c.204.095.42.135.665.135.217 0 .46-.04.718-.108.277-.093.5-.208.598-.259a.408.408 0 0 1 .053-.026l.271-.163-.149-.284c-.013-.041-.447-.868-1.302-1.248-.854-.38-1.762-.135-1.803-.122l-.312.082.068.311a.478.478 0 0 1 .026.08c.034.116.102.347.218.598.244.489.57.841.95 1.004Zm4.217 1.437c.109.027.217.04.34.04a2.24 2.24 0 0 0 1.016-.27c.353-.177.583-.38.597-.394l.244-.217-.19-.257c-.027-.041-.61-.787-1.519-.99-.84-.188-1.623.146-1.767.208l-.023.009-.284.135.122.299c0 .013.122.312.352.623.326.434.706.72 1.112.814Z" clip-rule="evenodd"/>
    </g>
    <defs>
        <linearGradient id="MenuPersonas_svg__a" x1="4.55" x2="6.425" y1="25.733" y2="25.733" gradientUnits="userSpaceOnUse">
            <stop stop-color="#AFC3E1"/>
            <stop offset="1" stop-color="#C3D7F5"/>
        </linearGradient>
        <linearGradient id="MenuPersonas_svg__b" x1="3.665" x2="20.794" y1="19.161" y2="17.549" gradientUnits="userSpaceOnUse">
            <stop stop-color="#AFC3E1"/>
            <stop offset="1" stop-color="#C3D7F5"/>
        </linearGradient>
        <linearGradient id="MenuPersonas_svg__d" x1="15.859" x2="27.313" y1="22.614" y2="22.614" gradientUnits="userSpaceOnUse">
            <stop stop-color="#B0CFEB"/>
            <stop offset="1" stop-color="#C4E1FB"/>
        </linearGradient>
        <filter id="MenuPersonas_svg__c" width="19.454" height="20.177" x="11.859" y="6.438" color-interpolation-filters="sRGB" filterUnits="userSpaceOnUse">
            <feFlood flood-opacity="0" result="BackgroundImageFix"/>
            <feGaussianBlur in="BackgroundImage" stdDeviation="2"/>
            <feComposite in2="SourceAlpha" operator="in" result="effect1_backgroundBlur_1005_18929"/>
            <feBlend in="SourceGraphic" in2="effect1_backgroundBlur_1005_18929" result="shape"/>
        </filter>
    </defs>
</svg>
